!!!!SEGMENT: Ric2011-Gloriosi_principes.krn
!!!id: Ric2011
!!!AGN: Motet
!!!SCT: Elzinga (1999)
!!!voices: 4
!!!COM: Jean Richafort
!!!OTL: Gloriosi principes
**kern	**kern	**kern	**kern
*part4	*part3	*part2	*part1
*staff4	*staff3	*staff2	*staff1
*I"Bassus	*I"Tenor	*I"Altus	*I"Superius
*I'B	*I'T	*I'A	*I'S
*clefF4	*clefGv2	*clefGv2	*clefG2
*k[]	*k[]	*k[]	*k[]
*C:	*C:	*C:	*C:
*M2/1	*M2/1	*M2/1	*M2/1
*met(C|)	*met(C|)	*met(C|)	*met(C|)
!!section: Prima pars: Gloriosa principes
!!!OMD: Prima pars: Gloriosa principes
=1	=1	=1	=1
0r	0r	1r	0g
.	.	[1c	.
=2	=2	=2	=2
0r	0r	1c]	1g
.	.	1c	1a
=3	=3	=3	=3
1r	0G	1d	1b
[1C	.	1e	[1g
=4	=4	=4	=4
1C]	1G	1c	2g]
.	.	.	2g
1C	1A	1e	1c
=5	=5	=5	=5
1D	1B	2.d	1f
.	.	4c	.
1E	[1G	4B	[1e
.	.	4A	.
.	.	[2c	.
=6	=6	=6	=6
1.C	2G]	2c]	0e]
.	1c	4B	.
.	.	4A	.
.	.	2G	.
2C	4B	2E	.
.	4A	.	.
=7	=7	=7	=7
1C	2.G	2E	2r
.	.	2E	2.g
.	8FL	.	.
.	8EJ	.	.
1BB	1D	1G	.
.	.	.	4f
.	.	.	4d
.	.	.	4e
=8	=8	=8	=8
1AA	0A	2C	4f
.	.	.	4g
.	.	2.c	2.a
[1F	.	.	.
.	.	4B	4b
.	.	4A	[2cc
.	.	4G	.
=9	=9	=9	=9
2F]	2.c	2F	4cc]
.	.	.	4b
2F	.	2.f	4a
.	4B	.	4g
1F	2A	.	4f
.	.	4e	4e
.	2F	[2d	[2a
=10	=10	=10	=10
1E	1G	4d]	4a]
.	.	4B	4g
.	.	2c	1g
[1D	[1A	1d	.
.	.	.	4f#i
.	.	.	4e
=11	=11	=11	=11
1D]	1A]	2r	1f#i
.	.	2d	.
1r	[1G	2d	[1g
.	.	2d	.
=12	=12	=12	=12
1.C	1G]	2.e	1g]
.	.	4f	.
.	2r	[1g	1r
2C	2G	.	.
=13	=13	=13	=13
2.E	2G	1g]	0r
.	2G	.	.
4F	.	.	.
[1G	2.B	1r	.
.	4c	.	.
=14	=14	=14	=14
2G]	2d	1G	0r
2C	1e	.	.
2.E	.	2G	.
.	2c	2G	.
4F	.	.	.
=15	=15	=15	=15
1D	2d	2.A	1r
.	1f	.	.
.	.	4B	.
[1C	.	1c	[1g
.	4e	.	.
.	4d	.	.
=16	=16	=16	=16
1C]	1e	2r	2g]
.	.	1c	2g
1r	1r	.	1a
.	.	2d	.
=17	=17	=17	=17
0r	0r	2e	1.cc
.	.	2.f	.
.	.	4e	.
.	.	4d	4b
.	.	4c	4a
=18	=18	=18	=18
1r	0r	2d	2b
.	.	2A	2cc
[1C	.	2.c	2g
.	.	.	[2cc
.	.	4d	.
=19	=19	=19	=19
1C]	0r	1e	2cc]
.	.	.	2b
1D	.	[1f	[1a
=20	=20	=20	=20
1.F	1r	1f]	1a]
.	[1c	1G	1g
4E	.	.	.
4D	.	.	.
=21	=21	=21	=21
2E	1c]	2G	0r
2.F	.	1A	.
.	1d	.	.
4E	.	.	.
4D	.	[2F	.
4C	.	.	.
=22	=22	=22	=22
1D	1.f	4F]	1r
.	.	4G	.
.	.	4A	.
.	.	4B	.
1C	.	[1c	2r
.	4e	.	2g
.	4d	.	.
=23	=23	=23	=23
2r	2e	2c]	2g
2D	2.f	2A	2.a
1D	.	1A	.
.	4e	.	4g
.	4d	.	4f
.	4c	.	4e
=24	=24	=24	=24
2r	1d	2r	2f
2G	.	2B	2g
[1G	2r	[1d	[1g
.	2B	.	.
=25	=25	=25	=25
1G]	1B	1d]	1g]
2r	1r	2r	2r
2c	.	2e	2g
=26	=26	=26	=26
2c	0r	2e	2a
2c	.	2e	2a
2B	.	2d	2g
2A	.	2c	2f#i
=27	=27	=27	=27
1G	2r	0B	1g
.	2d	.	.
1G	2e	.	1r
.	2e	.	.
=28	=28	=28	=28
2F	2d	0r	0r
2E	2c	.	.
1D	2B	.	.
.	[2A	.	.
=29	=29	=29	=29
2C	4A]	0r	1g
.	4G	.	.
2BB	1G	.	.
1AA	.	.	2a
.	2F#i	.	[2cc
=30	=30	=30	=30
0GG	0G	1.d	2cc]
.	.	.	4b
.	.	.	4a
.	.	.	1b
.	.	2e	.
=31	=31	=31	=31
2r	2D	2.f	[0a
2D	2F	.	.
.	.	8eL	.
.	.	8dJ	.
2D	2D	2f	.
2C	2E	[2e	.
=32	=32	=32	=32
2D	1F	2e]	0a]
2D	.	1d	.
1AA	1E	.	.
.	.	2c#i	.
=33	=33	=33	=33
1.A	0D	0d	1r
.	.	.	[1a
2G	.	.	.
=34	=34	=34	=34
2F	1.A	1r	2a]
2E	.	.	2g
2D	.	2r	2f
2C	2c	2G	2e
=35	=35	=35	=35
2G	2B	1G	2d
2E	4A	.	1g
.	4G	.	.
1D	1A	1d	.
.	.	.	2f#i
=36	=36	=36	=36
1GG	0G	0B	1g
[1G	.	.	2r
.	.	.	2g
=37	=37	=37	=37
2G]	2r	1d	2d
2D	2A	.	1f
1F	2A	2c	.
.	2A	2A	2c
=38	=38	=38	=38
1C	2G	1c	2r
.	2.E	.	1g
1G	.	1B	.
.	4F	.	.
.	2G	.	2d
=39	=39	=39	=39
2.D	4F	2.d	2.f
.	4D	.	.
.	2d	.	.
4E	.	4c	4g
2F	2c	2A	2a
2G	2B	[2e	[2b-i
=40	=40	=40	=40
1A	1c	4e]	4b-]
.	.	4c	4a
.	.	1f	1a
1B	1d	.	.
.	.	4e	2g#i
.	.	4d	.
=41	=41	=41	=41
1A	0e	[0c	[0a
2r	.	.	.
[2A	.	.	.
=42	=42	=42	=42
1A]	2r	1c]	1a]
.	1.e	.	.
2G	.	2r	1r
2E	.	2g	.
=43	=43	=43	=43
1G	2d	2g	1r
.	2B	2.d	.
2F	1d	.	2r
.	.	4e	.
2D	.	[2f	[2a
=44	=44	=44	=44
1F	2c	4f]	1a]
.	.	4e	.
.	2A	2.c	.
2E	1c	.	2g
.	.	4d	.
2C	.	[2e	2e
=45	=45	=45	=45
1E	2B	4e]	1g
.	.	4d	.
.	2G	4B	.
.	.	4c	.
[1D	1B-X	4d	2f
.	.	4e	.
.	.	[2f	2d
=46	=46	=46	=46
1D]	1A	2f]	1f
.	.	4e	.
.	.	4d	.
[1AA	[1A	2c	2.e
.	.	[2d	.
.	.	.	4d
=47	=47	=47	=47
1AA]	1A]	2d]	1e
.	.	2c	.
2r	1D	2d	1d
[2A	.	2f	.
=48	=48	=48	=48
2A]	2r	2e	1c
2A	1e	2c	.
2G	.	2r	1r
2E	2e	[2g	.
=49	=49	=49	=49
1G	2d	4g]	1r
.	.	4f	.
.	2B	2.d	.
2F	1d	.	2r
.	.	4e	.
2D	.	[2f	[2a
=50	=50	=50	=50
1F	2c	4f]	2a]
.	.	4e	.
.	2A	2.c	2a
2E	1c	.	2g
.	.	4d	.
2C	.	[2e	2e
=51	=51	=51	=51
1E	2B	4e]	1g
.	.	4d	.
.	2G	4B	.
.	.	4c	.
[1D	1B-X	4d	2f
.	.	4e	.
.	.	[2f	2d
=52	=52	=52	=52
1D]	1A	2f]	1f
.	.	4e	.
.	.	4d	.
1AA	[1A	2.c	4e
.	.	.	4c
.	.	.	[2cc
.	.	4d	.
=53	=53	=53	=53
2A	2A]	2e	4cc]
.	.	.	4b
2G	2B	2e	2.b
2F	2c	1f	.
.	.	.	4a
2D	2d	.	[2a
=54	=54	=54	=54
1E	1B	1e	2a]
.	.	.	2g#i
[1AA	1A	1e	[1a
=55	=55	=55	=55
1AA]	2r	2r	1a]
.	2c	2e	.
2r	2B	2f	1r
2D	2A	2f	.
=56	=56	=56	=56
2G	1B	1d	0r
2G	.	.	.
1C	2r	2r	.
.	2c	2e	.
=57	=57	=57	=57
2r	2B	1f	0r
2D	2A	.	.
2.E	2c	[1g	.
.	[2B	.	.
4F	.	.	.
=58	=58	=58	=58
2G	4B]	2g]	0r
.	4G	.	.
1A	1c	2e	.
.	.	[1e	.
4G	4B	.	.
4F	4A	.	.
=59	=59	=59	=59
1E	2B	2e]	1r
.	2G	4d	.
.	.	4c	.
1r	2d	2B	2r
.	[2e	2A	2c
=60	=60	=60	=60
0r	2e]	2.c	1g
.	4d	.	.
.	4c	8BL	.
.	.	8AJ	.
.	2B	4G	1g
.	.	4E	.
.	[2c	[2e	.
=61	=61	=61	=61
0r	4c]	2e]	0a
.	4B	.	.
.	4A	2f	.
.	4G	.	.
.	4F	2.f	.
.	4D	.	.
.	2d	.	.
.	.	8eL	.
.	.	8dJ	.
=62	=62	=62	=62
0r	2d	2f	2r
.	1A	2e	2a
.	.	4c	2a
.	.	4d	.
.	2c	4e	2e
.	.	4f	.
=63	=63	=63	=63
0r	4B	2d	0g
.	4G	.	.
.	1c	2.e	.
.	.	4d	.
.	2B	[2d	.
=64	=64	=64	=64
2C	2c	4d]	1e
.	.	4c	.
2C	2g	1c	.
2G	2.g	.	1d
2G	.	2B	.
.	4f	.	.
=65	=65	=65	=65
1A	4e	1c	0c
.	4d	.	.
.	4c	.	.
.	4B	.	.
1A	4A	2r	.
.	4G	.	.
.	[2c	2e	.
=66	=66	=66	=66
2r	4c]	2e	2r
.	4A	.	.
2A	1c	2e	2e
2A	.	2c	2e
2E	4B	[2e	[2g
.	4A	.	.
=67	=67	=67	=67
1.G	2B	4e]	2g]
.	.	4d	.
.	2G	2.d	4f
.	.	.	4e
.	2B	.	2d
.	.	4c	.
4F	2c	[2c	2e
4E	.	.	.
=68	=68	=68	=68
1D	1d	4c]	2.f
.	.	8BL	.
.	.	8AJ	.
.	.	2B	.
.	.	.	4g
1C	[1G	[1c	[1e
=69	=69	=69	=69
2r	1G]	1c]	0e]
2C	.	.	.
2C	1r	2r	.
2AA	.	2c	.
=70	=70	=70	=70
1D	1r	2A	1r
.	.	2B	.
1C	2r	1c	2r
.	2G	.	[2g
=71	=71	=71	=71
1C	2G	2c	2g]
.	2E	2c	2g
1r	1A	1r	2e
.	.	.	2f#i
=72	=72	=72	=72
1.C	2G	0r	0g
.	2G	.	.
.	2G	.	.
2GG	2G	.	.
=73	=73	=73	=73
1.C	2E	0r	1g
.	4C	.	.
.	4D	.	.
.	4E	.	2r
.	4F	.	.
2BB	[2G	.	2d
=74	=74	=74	=74
1AA	4G]	1c	2e
.	8F#iL	.	.
.	8EJ	.	.
.	2F#i	.	4c
.	.	.	4d
1GG	2G	2c	4e
.	.	.	4f
.	2d	2B	[2g
=75	=75	=75	=75
2r	2d	1A	4g]
.	.	.	4f#i
2D	2d	.	4e
.	.	.	4f#i
2E	2.B	1G	1g
[2G	.	.	.
.	4G	.	.
=76	=76	=76	=76
2G]	2A	0r	2e
2F	1c	.	2f
2G	.	.	1d
2G	2B	.	.
=77	=77	=77	=77
2A	2c	2.c	1r
1c	2A	.	.
.	.	4d	.
.	2G	4e	1g
.	.	4f	.
2B	2d	[2g	.
=78	=78	=78	=78
1A	2e	2g]	2a
.	2c	2f#i	1cc
1G	1d	1g	.
.	.	.	2b
=79	=79	=79	=79
1C	0r	2r	2cc
.	.	1c	2g
1r	.	.	2a
.	.	2d	2b
=80	=80	=80	=80
0r	0r	2e	2.cc
.	.	2.f	.
.	.	.	4b
.	.	.	4a
.	.	4e	4g
.	.	4d	[2a
.	.	4c	.
=81	=81	=81	=81
0r	2r	2d	2a]
.	2d	2B	1g
.	2e	1A	.
.	2c	.	2f#i
=82	=82	=82	=82
2r	2d	1G	1g
2G	2B	.	.
2A	2.c	2e	1r
2F	.	2f	.
.	8BL	.	.
.	8AJ	.	.
=83	=83	=83	=83
2G	1G	2d	2r
2E	.	2e	2g
2F	2r	2c	2a
2D	2d	2d	2f
=84	=84	=84	=84
1C	2e	1G	2g
.	2c	.	2e
2r	2d	1r	2f
2G	2B	.	2d
=85	=85	=85	=85
2A	2.c	2e	1c
2F	.	2f	.
.	8BL	.	.
.	8AJ	.	.
2G	1G	2d	2r
2E	.	2e	2g
=86	=86	=86	=86
2F	2r	2c	2a
2D	2d	2d	2f
1C	2e	1G	2g
.	2c	.	2e
=87	=87	=87	=87
2r	1d	1r	2.f
2D	.	.	.
.	.	.	8eL
.	.	.	8dJ
2F	2A	2r	4c
.	.	.	4d
2C	[2c	2G	[2e
=88	=88	=88	=88
2E	4c]	1G	4e]
.	4B	.	4d
2E	2G	.	1g
1D	1A	1d	.
.	.	.	2f#i
=	=	=	=
00GG	00G	00d	00g
=||	=||	=||	=||
*M2/1	*M2/1	*M2/1	*M2/1
*met(C|)	*met(C|)	*met(C|)	*met(C|)
!!section: Secunda pars: Tu es pastor
!!!OMD: Secunda pars: Tu es pastor
0C	1.G	0c	0g
.	2A	.	.
=89	=89	=89	=89
0G	0B	[0d	0g
=90	=90	=90	=90
1r	2.B	1d]	1r
.	8AL	.	.
.	8BJ	.	.
1E	4c	2r	1g
.	4B	.	.
.	2e	2g	.
=91	=91	=91	=91
1F	4d	1f	1a
.	4c	.	.
.	2.c	.	.
1G	.	1d	1g
.	8BL	.	.
.	8AJ	.	.
.	2B	.	.
=92	=92	=92	=92
1C	1c	1e	0g
1G	2r	1d	.
.	2B	.	.
=93	=93	=93	=93
2r	2A	2c	1r
2E	2G	2g	.
2D	2d	1r	2r
2C	2G	.	2e
=94	=94	=94	=94
1F	1.A	2r	2d
.	.	1f	2c
[1D	.	.	[1f
.	2A	2d	.
=95	=95	=95	=95
2D]	2B-X	2d	2f]
2C	1c	2e	2e
1F	.	2.A	2c
.	4B-i	.	2d
.	4A	4B	.
=96	=96	=96	=96
2E	4G	1c	1e
.	4E	.	.
2C	1e	.	.
1D	.	2B	1f
.	2d	[2A	.
=97	=97	=97	=97
0E	2c	2A]	[0e
.	4B	4G#i	.
.	4A	4F#i	.
.	1B	1G#i	.
=98	=98	=98	=98
2r	1A	1A	1e]
2AA	.	.	.
2.C	2r	1r	1r
.	2E	.	.
4D	.	.	.
=99	=99	=99	=99
2E	2.G	0r	0r
2F	.	.	.
.	4A	.	.
[1G	2.B	.	.
.	4c	.	.
=100	=100	=100	=100
2G]	4d	0r	0r
.	4e	.	.
2F	2.d	.	.
1E	.	.	.
.	8c#iL	.	.
.	8BJ	.	.
.	2c#i	.	.
=101	=101	=101	=101
1D	1d	1A	1r
[1C	1G	2.c	1e
.	.	4d	.
=102	=102	=102	=102
1C]	0r	2.e	2.g
.	.	4f	4a
1r	.	[1g	2b
.	.	.	2cc
=103	=103	=103	=103
0r	0r	2g]	1.dd
.	.	4f	.
.	.	4e	.
.	.	4f	.
.	.	4g	.
.	.	[2a	2cc
=104	=104	=104	=104
1r	0r	4a]	2.b
.	.	4g	.
.	.	2.g	.
.	.	.	8aL
.	.	.	8gJ
1D	.	.	1a
.	.	8f#iL	.
.	.	8eJ	.
.	.	2f#i	.
=105	=105	=105	=105
1E	1G	2g	1g
.	.	2c	.
1F	1A	2c	1r
.	.	[2d	.
=106	=106	=106	=106
2G	1B	2d]	1d
2G	.	2G	.
1C	2c	1G	1e
.	2c	.	.
=107	=107	=107	=107
2r	1A	0r	1f
2D	.	.	.
2E	2r	.	2g
2F	2A	.	2c
=108	=108	=108	=108
2G	2B	0r	0r
2.A	2c	.	.
.	2G	.	.
4G	.	.	.
[2G	2B	.	.
=109	=109	=109	=109
2G]	1A	2r	1r
2F#i	.	2A	.
1G	1G	2.B	2d
.	.	.	2e
.	.	4c	.
=110	=110	=110	=110
0r	0r	2d	2f
.	.	2.e	2g
.	.	.	2d
.	.	4d	.
.	.	[2d	2f
=111	=111	=111	=111
1r	1r	4d]	1e
.	.	8c#iL	.
.	.	8BJ	.
.	.	2c#i	.
2r	[1G	1d	[1d
[2B	.	.	.
=112	=112	=112	=112
2B]	2G]	1r	1d]
2A	2F	.	.
2B	2G	[1d	1r
2A	2D	.	.
=113	=113	=113	=113
1G	1B-X	2d]	0r
.	.	2d	.
2F	2A	1d	.
2G	2B-i	.	.
=114	=114	=114	=114
2D	2A	1d	0r
1G	1B-i	.	.
.	.	1d	.
4F	4A	.	.
4E	4G	.	.
=115	=115	=115	=115
2F	2A	1d	1r
2G	2B	.	.
1C	1c	2e	[1g
.	.	[2c	.
=116	=116	=116	=116
1G	2r	2c]	2g]
.	2d	2B	2g
1r	2e	2c	1g
.	2d	2G	.
=117	=117	=117	=117
0r	2c	1e	1g
.	2c	.	.
.	2B	2d	1g
.	2c	2e	.
=118	=118	=118	=118
0r	2G	2d	0g
.	1c	1e	.
.	4B	4d	.
.	4A	4c	.
=119	=119	=119	=119
1r	2B	2d	1g
.	2.c	2e	.
[1F	.	[1f	[1a
.	4A	.	.
.	2d	.	.
=120	=120	=120	=120
2F]	2c	2f]	1a]
2F	2d	4e	.
.	.	4d	.
1F	2A	1c	2r
.	[2f	.	2a
=121	=121	=121	=121
2D	4f]	2.d	2a
.	4e	.	.
2.F	2d	.	2a
.	.	4c	.
.	2c	4A	1cc
4E	.	4B	.
2C	2e	2c	.
=122	=122	=122	=122
1D	1d	2F	2b
.	.	2.f	2.a
2E	2B	.	.
.	.	4e	4g
2C	2c	[2e	[2g
=123	=123	=123	=123
1D	1A	4e]	2g]
.	.	4d	.
.	.	1d	2f
1AA	[1A	.	[1e
.	.	4c	.
.	.	4B	.
=124	=124	=124	=124
2r	1A]	1c	1e]
2A	.	.	.
2A	2r	2r	2r
2A	2c	2e	2a
=125	=125	=125	=125
2D	2d	2.f	2a
2.F	2c	.	2a
.	.	4e	.
.	2A	2c	1cc
4E	.	.	.
2C	2c	[2e	.
=126	=126	=126	=126
2G	1d	4e]	2b
.	.	4d	.
2D	.	2.d	2.a
1E	1G	.	.
.	.	8cL	4g
.	.	8BJ	.
.	.	2c	[2g
=	=	=	=
1D	1A	1d	2g]
.	.	.	2f#i
=	=	=	=
*M3/1	*M3/1	*M3/1	*M3/1
*met(3)	*met(3)	*met(3)	*met(3)
1GG	0G	0d	0g
0G	.	.	.
.	1r	1B	1r
=127	=127	=127	=127
1E	1r	1c	0.r
1F	0d	1A	.
1D	.	1B	.
=128	=128	=128	=128
1E	1B	0G	0g
0C	0c	.	.
.	.	1c	1e
=129	=129	=129	=129
1F	1A	1c	1f
1G	1B	1B	1d
1C	1c	1G	1e
=130	=130	=130	=130
1D	1A	1d	1f
1E	1G	1r	1g
1r	[1c	1r	[1e
=131	=131	=131	=131
1%3r	2c]	0.r	2e]
.	2A	.	2c
.	1B	.	1d
.	1c	.	1e
=132	=132	=132	=132
0G	0.r	0B	0.r
1E	.	1G	.
=133	=133	=133	=133
1F	0d	1A	0d
0G	.	0B	.
.	1B	.	1d
=134	=134	=134	=134
1C	1c	1G	1e
1r	0d	1r	0f
1r	.	1r	.
=135	=135	=135	=135
0G	1B	0B	1g
.	1.e	.	1g
1E	.	1c	1g
.	2d	.	.
=136	=136	=136	=136
1F	1.c	1A	1a
0G	.	0d	0g
.	4B	.	.
.	4A	.	.
.	1B	.	.
=	=	=	=
*M2/1	*M2/1	*M2/1	*M2/1
*met(C|)	*met(C|)	*met(C|)	*met(C|)
[0C	0c	[0e	1g
.	.	.	2r
.	.	.	2g
=137	=137	=137	=137
0C]	2r	0e]	1.g
.	2c	.	.
.	2c	.	.
.	2c	.	2e
=138	=138	=138	=138
2r	2A	1r	2f
2G	2B	.	2g
[1A	1c	2r	1e
.	.	2c	.
=139	=139	=139	=139
2A]	2.e	2c	0r
2G	.	2c	.
.	4e	.	.
2F	2d	2A	.
2E	[2c	[2G	.
=140	=140	=140	=140
1D	4c]	4G]	0r
.	8BL	8FL	.
.	8AJ	8EJ	.
.	2B	2F	.
2.C	2c	[1G	.
.	2c	.	.
8BBL	.	.	.
8AAJ	.	.	.
=141	=141	=141	=141
2GG	1d	2G]	0r
2G	.	2G	.
2G	2B	2G	.
2E	2c	2G	.
=142	=142	=142	=142
2F	1d	2A	2r
2G	.	2B	1g
2C	2e	2.c	.
2C	2e	.	2e
.	.	4B	.
=143	=143	=143	=143
2D	2d	2A	2f
2E	2B	2G	2g
2AA	2c	1A	1c
2F	2A	.	.
=144	=144	=144	=144
2E	2G	2B	2r
2C	2.G	2.c	2g
1E	.	.	2g
.	4A	4B	.
.	4B	2G	2e
.	4c	.	.
=145	=145	=145	=145
2D	1d	2.A	2f
2F	.	.	2.a
.	.	4B	.
2E	2.e	4c	.
.	.	4d	4g
2C	.	[2e	[2g
.	4d	.	.
=146	=146	=146	=146
1G	4B	4e]	2g]
.	4c	4d	.
.	2.d	2B	4f#i
.	.	.	4e
1A	.	1c	1f#i
.	4c	.	.
.	[2c	.	.
=147	=147	=147	=147
0G	2c]	0d	1g
.	4B	.	.
.	4A	.	.
.	1B	.	1g
=148	=148	=148	=148
[0C	[0c	0e	1g
.	.	.	1r
=149	=149	=149	=149
0C]	0c]	1r	0g
.	.	1c	.
=150	=150	=150	=150
0r	0r	1c	1g
.	.	1c	1a
=151	=151	=151	=151
1r	1G	1d	1b
1C	1G	1e	[1g
=152	=152	=152	=152
1C	1G	1c	2g]
.	.	.	2g
1C	1A	1e	2c
.	.	.	2c
=153	=153	=153	=153
1D	2B	2.d	2f
.	2B	.	2f
.	.	4c	.
2E	[1G	4B	[1e
.	.	4A	.
2E	.	[2c	.
=154	=154	=154	=154
1.C	2G]	2c]	0e]
.	1c	4B	.
.	.	4A	.
.	.	2G	.
2C	4B	2E	.
.	4A	.	.
=155	=155	=155	=155
1C	2.G	2E	2r
.	.	2E	2.g
.	8FL	.	.
.	8EJ	.	.
1BB	1D	1G	.
.	.	.	4f
.	.	.	4d
.	.	.	4e
=156	=156	=156	=156
1AA	0A	2C	4f
.	.	.	4g
.	.	2.c	2.a
[1F	.	.	.
.	.	4B	4b
.	.	4A	[2cc
.	.	4G	.
=157	=157	=157	=157
2F]	2.c	2F	4cc]
.	.	.	4b
2F	.	2.f	4a
.	4B	.	4g
1F	2A	.	2f
.	.	4e	.
.	2F	[2d	[2a
=158	=158	=158	=158
1E	1G	4d]	4a]
.	.	4B	4g
.	.	2c	1g
[1D	[1A	1d	.
.	.	.	4f#i
.	.	.	4e
=159	=159	=159	=159
1D]	1A]	2r	1f#i
.	.	2d	.
2r	[1G	2d	[1g
2G	.	2d	.
=160	=160	=160	=160
2G	0G]	1B	1g]
2G	.	.	.
2.E	.	1e	[1g
4F	.	.	.
=161	=161	=161	=161
2G	2r	2d	1g]
2C	2G	2e	.
2C	2G	2e	[1g
2BB	2G	2d	.
=162	=162	=162	=162
1C	2.E	2e	1g]
.	.	2e	.
.	4F	.	.
2GG	2G	2d	1g
[2C	2E	2e	.
=163	=163	=163	=163
2C]	2C	2e	1.g
2BB	2D	2d	.
1C	2E	1c	.
.	2F	.	2f
=164	=164	=164	=164
[0GGl	[0Gl	1c	1e
.	.	[1Bl	[1dl
=165	=165	=165	=165
00GG]	00G]	00B]	00d]
==	==	==	==
*-	*-	*-	*-
!!!system-decoration: [*]
!!!RDF**kern: i = editorial accidental
!!!RDF**kern: l = terminal long
!!!ENC: Benjamin Ory
!!!END: 2022/2/6
!!!EED: Benjamin Ory
!!!EEV: 2022/02/06
!!!YEC: Copyright 2022 Benjamin Ory, All Rights Reserved
!!!ONB: Translated from MusicXML on 2022/02/06
